packages/core/src/svgs/tokens/mono/BTS.svg

<svg width="24" height="24" viewBox="0 0 24 24" fill="none" xmlns="http://www.w3.org/2000/svg">
<path d="M10.0318 14.773L5.78369 10.4216V15.5136H9.78913C9.82697 15.2487 9.91021 14.9995 10.0318 14.773ZM11.7296 13.6043C11.3016 13.658 10.8984 13.8346 10.5686 14.1124L5.78369 9.21946V2L11.7296 7.27893V13.6043ZM13.4523 14.1113C13.1167 13.8293 12.7057 13.6522 12.2702 13.6021V9.83622C13.6383 9.93189 15.0886 10.4822 16.1026 11.3973L13.4523 14.1113ZM14.2323 15.5136C14.1952 15.2515 14.1117 14.9982 13.9859 14.7654L16.6929 12.0032C17.5951 13.0617 18.1296 14.1309 18.2161 15.5136H14.2323ZM13.9189 17.0125C14.0918 16.7346 14.2053 16.4156 14.242 16.0741H18.2161C18.1301 17.4624 17.5956 18.785 16.6929 19.8432L13.9189 17.0125ZM12.2702 18.0601C12.6644 18.0148 13.0394 17.8653 13.3566 17.6271L16.1026 20.4389C15.0886 21.3541 13.6383 21.9038 12.2702 22V18.0601ZM10.6642 17.6259C10.9756 17.8603 11.3429 18.009 11.7296 18.0573V22C10.3577 21.9065 8.92428 21.3568 7.90801 20.4389L10.6642 17.6259ZM9.77992 16.0741C9.81663 16.413 9.928 16.7287 10.0988 17.0054L7.32748 19.833C6.4215 18.783 5.87989 17.4678 5.78369 16.0843L5.7945 16.0741H9.77992Z" fill="white"/>
</svg>

<svg xmlns="http://www.w3.org/2000/svg" width="24" height="24" fill="none" viewBox="0 0 24 24">
    <path fill="#fff" d="m10.032 14.773-4.248-4.351v5.092h4.005q.058-.399.243-.741m1.698-1.169c-.428.054-.832.23-1.161.508L5.784 9.22V2l5.946 5.279zm1.722.507a2.23 2.23 0 0 0-1.182-.509V9.836c1.368.096 2.819.646 3.833 1.561zm.78 1.403a2.2 2.2 0 0 0-.246-.749l2.707-2.762c.902 1.059 1.437 2.128 1.523 3.51zm-.313 1.499c.173-.278.286-.597.323-.939h3.974a6.42 6.42 0 0 1-1.523 3.77zM12.27 18.06c.394-.045.77-.195 1.087-.433l2.746 2.812c-1.014.915-2.465 1.465-3.833 1.561zm-1.606-.434c.312.234.679.383 1.066.431V22c-1.372-.093-2.806-.643-3.822-1.561zm-.884-1.552c.037.339.148.655.319.931l-2.772 2.828a6.42 6.42 0 0 1-1.543-3.749l.01-.01z"/>
</svg>
